modules/feathericon/icons/users.svg

<?xml version="1.0" encoding="UTF-8"?>
<svg width="24px" height="24px" viewBox="0 0 24 24" version="1.1" xmlns="http://www.w3.org/2000/svg" xmlns:xlink="http://www.w3.org/1999/xlink">
    <!-- Generator: sketchtool 52.2 (67145) - http://www.bohemiancoding.com/sketch -->
    <title>users</title>
    <desc>Created with sketchtool.</desc>
    <g id="web-app" stroke="none" stroke-width="1" fill="none" fill-rule="evenodd">
        <g id="users" fill="#000000">
            <path d="M8,13 C6.34314575,13 5,11.6568542 5,10 C5,8.34314575 6.34314575,7 8,7 C9.65685425,7 11,8.34314575 11,10 C11,11.6568542 9.65685425,13 8,13 Z M16,13 C14.3431458,13 13,11.6568542 13,10 C13,8.34314575 14.3431458,7 16,7 C17.6568542,7 19,8.34314575 19,10 C19,11.6568542 17.6568542,13 16,13 Z M8,15 C10.3893851,15 12.5341111,16.0475098 14,17.7083512 C14,18.1839232 14,18.6144728 14,19 L2,19 C2,18.6144728 2,18.1839232 2,17.7083512 C3.46588891,16.0475098 5.61061495,15 8,15 Z M16,19 L16,16.9519717 L15.4994784,16.3848843 C15.1151403,15.949432 14.6965808,15.550843 14.2491048,15.1921858 C14.8126186,15.0663701 15.3985585,15 16,15 C18.3893851,15 20.5341111,16.0475098 22,17.7083512 L22,19 L16,19 Z" id="Shape"></path>
        </g>
    </g>
</svg>

<svg width="24" height="24" viewBox="0 0 24 24" xmlns="http://www.w3.org/2000/svg"><path d="M8 13a3 3 0 1 1 0-6 3 3 0 0 1 0 6zm8 0a3 3 0 1 1 0-6 3 3 0 0 1 0 6zm-8 2a7.98 7.98 0 0 1 6 2.708V19H2v-1.292A7.98 7.98 0 0 1 8 15zm8 4v-2.048l-.5-.567a10.057 10.057 0 0 0-1.25-1.193A8.028 8.028 0 0 1 16 15a7.98 7.98 0 0 1 6 2.708V19h-6z" fill="#000" fill-rule="evenodd"/></svg>
